X: 489
T: Cotton Eyed Joe
B: jims roots
M:2/4
L:1/16
Q: 1/4=100
K:A
V:1 
"A"c-e[ee][ee] [e2e]e2 | fafd Beee | BcAc BAFB | "E"AFDF "A"E2E2 |
"A"ee2e [e2e]e2        | fafe c2e2 | BcAF cAEB | "E"ABAF "A"E2E2 ||
"A"c-e[ee][ee] [e2e]e2 | faed Bccc | BcAc BAFB | "E"FAED "A"C2F-([AA] |
"A"[A2A])[AA][AA] [A2A]E2 | FBAB cccB | ABcB AFEA | "E"EFAF "A"E2 F-([AA] |
"A"[A2A])[AA][AA] [A2A]E2 | FBAB cccB | edcB AcEF | "E"EFAF "A"E2 F-([AA] ||
"A"[A2A])[AA][AA] [A2A]E2 | FBAB c3 B | AecA =cBAF| "E"EFAF "A"E2 F-([AA] |
"A"[A2A])[AA][AA] [A2A]EF | ABAB c2 Ac | ecAd BAFB| "E"AFE2 "A"A2A2 ||
% abcbook-tune_id 6298c245d8899d2eab1229f0


% abcbook-boost 0
% abcbook-tablature 
% abcbook-transpose 
% abcbook-lastupdated 1654178373807
% abcbook-soundfonts 
% abcbook-repeats 1


